core/assets/icons/search.svg

<svg width="24" height="24" viewBox="0 0 24 24" xmlns="http://www.w3.org/2000/svg"><g id="search"><path id="Vector" d="M17.2049 15.7518L21 19.4873L19.7462 20.7218L15.952 16.9853C14.5402 18.0996 12.7842 18.7056 10.9748 18.7031C6.57271 18.7031 3 15.1856 3 10.8515C3 6.51748 6.57271 3 10.9748 3C15.3769 3 18.9496 6.51748 18.9496 10.8515C18.9522 12.633 18.3366 14.3618 17.2049 15.7518ZM15.4274 15.1044C16.5519 13.9659 17.18 12.4397 17.1774 10.8515C17.1774 7.47712 14.4013 4.74478 10.9748 4.74478C7.54741 4.74478 4.77218 7.47712 4.77218 10.8515C4.77218 14.2251 7.54741 16.9583 10.9748 16.9583C12.5879 16.9608 14.138 16.3425 15.2945 15.2353L15.4274 15.1044Z"/></g></svg>

<svg xmlns="http://www.w3.org/2000/svg" width="24" height="24" fill="none"><path fill="#191C22" d="M17.205 15.752 21 19.487l-1.254 1.235-3.794-3.737a8.018 8.018 0 0 1-4.977 1.718C6.573 18.703 3 15.186 3 10.852 3 6.516 6.573 3 10.975 3c4.402 0 7.975 3.517 7.975 7.851a7.741 7.741 0 0 1-1.745 4.9Zm-1.778-.648a6.037 6.037 0 0 0 1.75-4.252c0-3.375-2.776-6.107-6.202-6.107-3.428 0-6.203 2.732-6.203 6.106 0 3.374 2.775 6.107 6.203 6.107a6.233 6.233 0 0 0 4.32-1.723l.132-.13Z"/></svg>
